X:1
T:pond
%%score { 1 | 2 }
L:1/4
Q:1/4=80
M:4/4
K:G
V:1 treble nm="Piano" snm="Pno."
L:1/8
V:2 bass 
V:1
|:ed z g- g2 z d | eded _BAzd | %2
ed z g- g2 z d | ed (3_BAG- G2 AG | %4
ed z g- g2 z d | eded ga-ad'- | %6
 d'4 z _e'd'_b | agz_b- bagd :| ed- d2 z4 |] %9
V:2
|: G,,4 A,,4 | B,,4 C,4 | %2
 G,,4 A,,4 | B,,4 C,4 | %4
 G,,4 A,,4 | B,,4 C,4 | %6
 D,8 | z8 :| G,,4 z4 |] %9